; HEADER_BLOCK_START
; generated by OrcaSlicer 2.3.0 on 2025-04-24 at 16:11:53
; total layer number: 125
;_GP_TOTAL_LAYER_NUMBER_PLACEHOLDER
; filament_density: 1.24
; filament_diameter: 1.75
; max_z_height: 25.00
; HEADER_BLOCK_END

; THUMBNAIL_BLOCK_START

;
; THUMBNAIL_BLOCK_END

; external perimeters extrusion width = 0.42mm
; perimeters extrusion width = 0.45mm
; infill extrusion width = 0.45mm
; solid infill extrusion width = 0.42mm
; top infill extrusion width = 0.42mm
; first layer extrusion width = 0.50mm

; EXECUTABLE_BLOCK_START
M73 P0 R39
M106 S0
M106 P2 S0
;TYPE:Custom
M190 S55
M104 S220
G90
M83
G1 Z5 F6000
G1 E-0.2 F800
G1 X110 Y-110 F6000
G1 E2 F800
G1 Y-110 X55 Z0.25 F4800
G1 X-55 E8 F2400
G1 Y-109.6 F2400
G1 X55 E5 F2400
G1 Y-110 X55 Z0.45 F4800
G1 X-55 E8 F2400
G1 Y-109.6 F2400
G1 X55 E5 F2400
G92 E0
G90
G21
M83 ; use relative distances for extrusion
; filament start gcode
;right_extruder_material:HS PLA
SET_PRESSURE_ADVANCE ADVANCE=0.025; Override pressure advance value
M106 S0
M106 P2 S0
;LAYER_CHANGE
;Z:0.2
;HEIGHT:0.2
;BEFORE_LAYER_CHANGE
;0.2
G1 E-.8 F2100
;AFTER_LAYER_CHANGE
;0.2
;_SET_FAN_SPEED_CHANGING_LAYER
SET_VELOCITY_LIMIT ACCEL=500
G1 X28.643 Y-12.361 F30000
G1 Z.6
G1 Z.2
G1 E.8 F2100
;TYPE:Inner wall
;WIDTH:0.5
G1 F3000
G1 X83.525 Y-12.368 E2.04416
G1 X84.083 Y-12.408 E.02082
G1 X84.682 Y-12.507 E.02262
G1 X84.649 Y-11.958 E.02048
G1 X84.643 Y-11.44 E.01931
G1 X84.643 Y22.513 E1.26462
G1 X-84.643 Y22.513 E6.30525
G1 X-84.643 Y-11.44 E1.26462
M73 P0 R38
G1 X-84.649 Y-11.958 E.01931
G1 X-84.682 Y-12.507 E.02048
G1 X-84.083 Y-12.408 E.02262
G1 X-83.528 Y-12.369 E.02073
G1 X-82.503 Y-12.362 E.03818
G1 X-27.643 Y-12.362 E2.04331
G1 X-27.643 Y-22.512 E.37807
G1 X28.643 Y-22.512 E2.09643
G1 X28.643 Y-12.401 E.37659
M73 P1 R38
G1 X29.1 Y-12.819 F30000
;TYPE:Outer wall
G1 F3000
G1 X83.509 Y-12.826 E2.02653
G1 X84.029 Y-12.863 E.01943
G1 X84.771 Y-12.985 E.02802
G1 X84.771 Y-22.864 E.36796
G1 X84.795 Y-22.995 E.00495
G1 X85 Y-22.983 E.00766
G1 X85.204 Y-22.995 E.0076
G1 X85.229 Y-22.851 E.00544
G1 X85.229 Y-13.43 E.35089
G1 X85.209 Y-12.951 E.01787
G1 X85.137 Y-12.456 E.01863
G1 X85.106 Y-11.942 E.01917
G1 X85.1 Y-11.437 E.0188
G1 X85.1 Y22.97 E1.28155
G1 X-85.1 Y22.97 E6.3393
G1 X-85.1 Y-11.437 E1.28155
G1 X-85.106 Y-11.942 E.0188
G1 X-85.137 Y-12.456 E.01917
G1 X-85.209 Y-12.951 E.01863
G1 X-85.229 Y-13.43 E.01787
G1 X-85.229 Y-22.851 E.35089
G1 X-85.204 Y-22.995 E.00544
G1 X-84.795 Y-22.995 E.01524
G1 X-84.771 Y-22.864 E.00495
G1 X-84.771 Y-12.985 E.36796
G1 X-84.029 Y-12.863 E.02802
G1 X-83.51 Y-12.826 E.0194
G1 X-82.501 Y-12.819 E.03758
G1 X-28.1 Y-12.819 E2.02623
G1 X-28.1 Y-22.969 E.37807
G1 X29.1 Y-22.969 E2.13048
G1 X29.1 Y-12.859 E.37658
G1 E-.8 F2100
;WIPE_START
G1 F3000
G1 X31.1 Y-12.857
;WIPE_END
G1 X38.73 Y-12.657 Z.6 F30000
G1 X84.506 Y-11.453 Z.6
G1 Z.2
G1 E.8 F2100
;TYPE:Bottom surface
;WIDTH:0.500537
G1 F4800
G1 X83.907 Y-12.052 E.03158
G1 X83.287 Y-12.026 E.02317
G1 X84.3 Y-11.012 E.05346
G1 X84.3 Y-10.365 E.02413
G1 X82.64 Y-12.026 E.08759
G1 X81.993 Y-12.025 E.02413
G1 X84.3 Y-9.718 E.12171
G1 X84.3 Y-9.07 E.02413
G1 X81.345 Y-12.025 E.15583
G1 X80.698 Y-12.025 E.02413
G1 X84.3 Y-8.423 E.18996
G1 X84.3 Y-7.776 E.02413
G1 X80.051 Y-12.025 E.22408
G1 X79.404 Y-12.025 E.02413
G1 X84.3 Y-7.129 E.25821
G1 X84.3 Y-6.482 E.02413
G1 X78.757 Y-12.025 E.29233
G1 X78.11 Y-12.025 E.02413
G1 X84.3 Y-5.835 E.32646
G1 X84.3 Y-5.187 E.02413
G1 X77.463 Y-12.025 E.36058
G1 X76.816 Y-12.025 E.02413
G1 X84.3 Y-4.54 E.3947
G1 X84.3 Y-3.893 E.02413
G1 X76.169 Y-12.025 E.42883
G1 X75.522 Y-12.025 E.02413
G1 X84.3 Y-3.246 E.46295
G1 X84.3 Y-2.599 E.02413
G1 X74.875 Y-12.025 E.49708
G1 X74.228 Y-12.024 E.02413
G1 X84.3 Y-1.952 E.5312
G1 X84.3 Y-1.304 E.02413
G1 X73.58 Y-12.024 E.56533
G1 X72.933 Y-12.024 E.02413
G1 X84.3 Y-.657 E.59945
G1 X84.3 Y-.01 E.02413
G1 X72.286 Y-12.024 E.63358
G1 X71.639 Y-12.024 E.02413
G1 X84.3 Y.637 E.6677
G1 X84.3 Y1.284 E.02413
G1 X70.992 Y-12.024 E.70182
G1 X70.345 Y-12.024 E.02413
G1 X84.3 Y1.931 E.73595
G1 X84.3 Y2.579 E.02413
G1 X69.698 Y-12.024 E.77007
G1 X69.051 Y-12.024 E.02413
G1 X84.3 Y3.226 E.8042
G1 X84.3 Y3.873 E.02413
G1 X68.404 Y-12.024 E.83832
G1 X67.757 Y-12.024 E.02413
G1 X84.3 Y4.52 E.87245
G1 X84.3 Y5.167 E.02413
G1 X67.11 Y-12.024 E.90657
G1 X66.463 Y-12.023 E.02413
G1 X84.3 Y5.814 E.94069
G1 X84.3 Y6.462 E.02413
G1 X65.815 Y-12.023 E.97482
G1 X65.168 Y-12.023 E.02413
G1 X84.3 Y7.109 E1.00894
G1 X84.3 Y7.756 E.02413
G1 X64.521 Y-12.023 E1.04307
G1 X63.874 Y-12.023 E.02413
G1 X84.3 Y8.403 E1.07719
G1 X84.3 Y9.05 E.02413
G1 X63.227 Y-12.023 E1.11132
G1 X62.58 Y-12.023 E.02413
G1 X84.3 Y9.697 E1.14544
G1 X84.3 Y10.344 E.02413
M73 P2 R38
G1 X61.933 Y-12.023 E1.17956
G1 X61.286 Y-12.023 E.02413
G1 X84.3 Y10.992 E1.21369
G1 X84.3 Y11.639 E.02413
G1 X60.639 Y-12.023 E1.24781
G1 X59.992 Y-12.023 E.02413
G1 X84.3 Y12.286 E1.28194
G1 X84.3 Y12.933 E.02413
G1 X59.345 Y-12.023 E1.31606
G1 X58.697 Y-12.022 E.02413
G1 X84.3 Y13.58 E1.35019
G1 X84.3 Y14.227 E.02413
G1 X58.05 Y-12.022 E1.38431
G1 X57.403 Y-12.022 E.02413
G1 X84.3 Y14.875 E1.41843
G1 X84.3 Y15.522 E.02413
G1 X56.756 Y-12.022 E1.45256
G1 X56.109 Y-12.022 E.02413
G1 X84.3 Y16.169 E1.48668
G1 X84.3 Y16.816 E.02413
G1 X55.462 Y-12.022 E1.52081
G1 X54.815 Y-12.022 E.02413
G1 X84.3 Y17.463 E1.55493
G1 X84.3 Y18.11 E.02413
G1 X54.168 Y-12.022 E1.58906
G1 X53.521 Y-12.022 E.02413
G1 X84.3 Y18.758 E1.62318
G1 X84.3 Y19.405 E.02413
G1 X52.874 Y-12.022 E1.65731
G1 X52.227 Y-12.022 E.02413
G1 X84.3 Y20.052 E1.69143
G1 X84.3 Y20.699 E.02413
G1 X51.58 Y-12.022 E1.72555
G1 X50.932 Y-12.021 E.02413
G1 X84.3 Y21.346 E1.75968
G1 X84.3 Y21.993 E.02413
G1 X50.285 Y-12.021 E1.7938
G1 X49.638 Y-12.021 E.02413
G1 X83.83 Y22.171 E1.80314
G1 X83.183 Y22.171 E.02413
G1 X48.991 Y-12.021 E1.80314
G1 X48.344 Y-12.021 E.02413
G1 X82.536 Y22.171 E1.80314
G1 X81.889 Y22.171 E.02413
G1 X47.697 Y-12.021 E1.80313
G1 X47.05 Y-12.021 E.02413
G1 X81.242 Y22.171 E1.80313
G1 X80.594 Y22.171 E.02413
G1 X46.403 Y-12.021 E1.80312
G1 X45.756 Y-12.021 E.02413
G1 X79.947 Y22.171 E1.80312
G1 X79.3 Y22.171 E.02413
G1 X45.109 Y-12.021 E1.80311
G1 X44.462 Y-12.021 E.02413
G1 X78.653 Y22.171 E1.80311
G1 X78.006 Y22.171 E.02413
G1 X43.815 Y-12.021 E1.8031
G1 X43.167 Y-12.02 E.02413
G1 X77.358 Y22.171 E1.8031
G1 X76.711 Y22.171 E.02413
G1 X42.52 Y-12.02 E1.8031
G1 X41.873 Y-12.02 E.02413
G1 X76.064 Y22.171 E1.80309
G1 X75.417 Y22.171 E.02413
G1 X41.226 Y-12.02 E1.80309
G1 X40.579 Y-12.02 E.02413
M73 P3 R38
G1 X74.77 Y22.171 E1.80308
G1 X74.123 Y22.171 E.02413
G1 X39.932 Y-12.02 E1.80308
G1 X39.285 Y-12.02 E.02413
G1 X73.475 Y22.171 E1.80307
G1 X72.828 Y22.171 E.02413
G1 X38.638 Y-12.02 E1.80307
G1 X37.991 Y-12.02 E.02413
G1 X72.181 Y22.171 E1.80307
G1 X71.534 Y22.171 E.02413
G1 X37.344 Y-12.02 E1.80306
G1 X36.697 Y-12.02 E.02413
G1 X70.887 Y22.171 E1.80306
G1 X70.24 Y22.171 E.02413
G1 X36.049 Y-12.02 E1.80305
G1 X35.402 Y-12.019 E.02413
G1 X69.592 Y22.171 E1.80305
M73 P3 R37
G1 X68.945 Y22.171 E.02413
G1 X34.755 Y-12.019 E1.80304
G1 X34.108 Y-12.019 E.02413
G1 X68.298 Y22.171 E1.80304
G1 X67.651 Y22.171 E.02413
G1 X33.461 Y-12.019 E1.80303
G1 X32.814 Y-12.019 E.02413
G1 X67.004 Y22.171 E1.80303
G1 X66.357 Y22.171 E.02413
G1 X32.167 Y-12.019 E1.80303
G1 X31.52 Y-12.019 E.02413
G1 X65.709 Y22.171 E1.80302
G1 X65.062 Y22.171 E.02413
G1 X30.873 Y-12.019 E1.80302
G1 X30.226 Y-12.019 E.02413
G1 X64.415 Y22.171 E1.80301
G1 X63.768 Y22.171 E.02413
G1 X29.373 Y-12.224 E1.81385
G1 E-.8 F2100
;WIPE_START
G1 F4800
G1 X30.787 Y-10.81
;WIPE_END
G1 X29.195 Y-18.275 Z.6 F30000
G1 X28.506 Y-21.505 Z.6
G1 Z.2
G1 E.8 F2100
G1 F4800
G1 X27.841 Y-22.169 E.03505
G1 X27.194 Y-22.169 E.02413
G1 X28.3 Y-21.063 E.05833
G1 X28.3 Y-20.416 E.02413
G1 X26.547 Y-22.169 E.09246
G1 X25.9 Y-22.169 E.02413
G1 X28.3 Y-19.769 E.12659
G1 X28.3 Y-19.122 E.02413
G1 X25.253 Y-22.169 E.16072
G1 X24.605 Y-22.169 E.02413
G1 X28.3 Y-18.475 E.19485
G1 X28.3 Y-17.827 E.02413
G1 X23.958 Y-22.169 E.22898
G1 X23.311 Y-22.169 E.02413
G1 X28.3 Y-17.18 E.26311
G1 X28.3 Y-16.533 E.02413
G1 X22.664 Y-22.169 E.29723
G1 X22.017 Y-22.169 E.02413
G1 X28.3 Y-15.886 E.33136
G1 X28.3 Y-15.239 E.02413
G1 X21.37 Y-22.169 E.36549
G1 X20.722 Y-22.169 E.02413
G1 X28.3 Y-14.592 E.39962
G1 X28.3 Y-13.944 E.02413
G1 X20.075 Y-22.169 E.43375
G1 X19.428 Y-22.169 E.02413
G1 X28.506 Y-13.092 E.47873
G1 E-.8 F2100
;WIPE_START
G1 F4800
G1 X27.092 Y-14.506
;WIPE_END
G1 X21.486 Y-19.686 Z.6 F30000
G1 X18.575 Y-22.375 Z.6
G1 Z.2
G1 E.8 F2100
G1 F4800
G1 X28.3 Y-12.65 E.51286
G1 X28.3 Y-12.019 E.02355
G1 X28.932 Y-12.019 E.02355
G1 X63.121 Y22.171 E1.803
G1 X62.474 Y22.171 E.02413
G1 X18.134 Y-22.169 E2.33831
G1 X17.487 Y-22.169 E.02413
G1 X61.826 Y22.171 E2.33831
G1 X61.179 Y22.171 E.02413
G1 X16.839 Y-22.169 E2.33831
G1 X16.192 Y-22.169 E.02413
G1 X60.532 Y22.171 E2.33831
G1 X59.885 Y22.171 E.02413
G1 X15.545 Y-22.169 E2.33831
G1 X14.898 Y-22.169 E.02413
M73 P4 R37
G1 X59.238 Y22.171 E2.33831
G1 X58.591 Y22.171 E.02413
G1 X14.251 Y-22.169 E2.33831
G1 X13.603 Y-22.169 E.02413
G1 X57.943 Y22.171 E2.33831
G1 X57.296 Y22.171 E.02413
G1 X12.956 Y-22.169 E2.33831
G1 X12.309 Y-22.169 E.02413
G1 X56.649 Y22.171 E2.33831
G1 X56.002 Y22.171 E.02413
G1 X11.662 Y-22.169 E2.33831
G1 X11.015 Y-22.169 E.02413
G1 X55.355 Y22.171 E2.33831
G1 X54.708 Y22.171 E.02413
G1 X10.368 Y-22.169 E2.33831
G1 X9.72 Y-22.169 E.02413
G1 X54.06 Y22.171 E2.33831
G1 X53.413 Y22.171 E.02413
G1 X9.073 Y-22.169 E2.33831
G1 X8.426 Y-22.169 E.02413
G1 X52.766 Y22.171 E2.33831
G1 X52.119 Y22.171 E.02413
G1 X7.779 Y-22.169 E2.33831
G1 X7.132 Y-22.169 E.02413
G1 X51.472 Y22.171 E2.33831
G1 X50.825 Y22.171 E.02413
G1 X6.485 Y-22.169 E2.33831
G1 X5.837 Y-22.169 E.02413
G1 X50.177 Y22.171 E2.33831
G1 X49.53 Y22.171 E.02413
G1 X5.19 Y-22.169 E2.33831
G1 X4.543 Y-22.169 E.02413
G1 X48.883 Y22.171 E2.33831
G1 X48.236 Y22.171 E.02413
G1 X3.896 Y-22.169 E2.33831
G1 X3.249 Y-22.169 E.02413
G1 X47.589 Y22.171 E2.33831
G1 X46.942 Y22.171 E.02413
G1 X2.602 Y-22.169 E2.33831
G1 X1.954 Y-22.169 E.02413
G1 X46.294 Y22.171 E2.33831
G1 X45.647 Y22.171 E.02413
G1 X1.307 Y-22.169 E2.33831
G1 X.66 Y-22.169 E.02413
G1 X45 Y22.171 E2.33831
G1 X44.353 Y22.171 E.02413
G1 X.013 Y-22.169 E2.33831
G1 X-.634 Y-22.169 E.02413
M73 P5 R37
G1 X43.706 Y22.171 E2.33831
G1 X43.059 Y22.171 E.02413
G1 X-1.281 Y-22.169 E2.33831
G1 X-1.929 Y-22.169 E.02413
G1 X42.411 Y22.171 E2.33831
G1 X41.764 Y22.171 E.02413
G1 X-2.576 Y-22.169 E2.33831
G1 X-3.223 Y-22.169 E.02413
G1 X41.117 Y22.171 E2.33831
G1 X40.47 Y22.171 E.02413
G1 X-3.87 Y-22.169 E2.33831
G1 X-4.517 Y-22.169 E.02413
G1 X39.823 Y22.171 E2.33831
G1 X39.176 Y22.171 E.02413
G1 X-5.164 Y-22.169 E2.33831
G1 X-5.812 Y-22.169 E.02413
G1 X38.528 Y22.171 E2.33831
G1 X37.881 Y22.171 E.02413
G1 X-6.459 Y-22.169 E2.33831
G1 X-7.106 Y-22.169 E.02413
G1 X37.234 Y22.171 E2.33831
G1 X36.587 Y22.171 E.02413
G1 X-7.753 Y-22.169 E2.33831
G1 X-8.4 Y-22.169 E.02413
G1 X35.94 Y22.171 E2.33831
G1 X35.293 Y22.171 E.02413
G1 X-9.047 Y-22.169 E2.33831
G1 X-9.695 Y-22.169 E.02413
G1 X34.645 Y22.171 E2.33831
G1 X33.998 Y22.171 E.02413
G1 X-10.342 Y-22.169 E2.33831
G1 X-10.989 Y-22.169 E.02413
G1 X33.351 Y22.171 E2.33831
G1 X32.704 Y22.171 E.02413
G1 X-11.636 Y-22.169 E2.33831
G1 X-12.283 Y-22.169 E.02413
G1 X32.057 Y22.171 E2.33831
G1 X31.41 Y22.171 E.02413
G1 X-12.93 Y-22.169 E2.33831
G1 X-13.578 Y-22.169 E.02413
M73 P5 R36
G1 X30.762 Y22.171 E2.33831
G1 X30.115 Y22.171 E.02413
G1 X-14.225 Y-22.169 E2.33831
G1 X-14.872 Y-22.169 E.02413
G1 X29.468 Y22.171 E2.33831
G1 X28.821 Y22.171 E.02413
G1 X-15.519 Y-22.169 E2.33831
G1 X-16.166 Y-22.169 E.02413
G1 X28.174 Y22.171 E2.33831
G1 X27.527 Y22.171 E.02413
M73 P6 R36
G1 X-16.813 Y-22.169 E2.33831
G1 X-17.461 Y-22.169 E.02413
G1 X26.879 Y22.171 E2.33831
G1 X26.232 Y22.171 E.02413
G1 X-18.108 Y-22.169 E2.33831
G1 X-18.755 Y-22.169 E.02413
G1 X25.585 Y22.171 E2.33831
G1 X24.938 Y22.171 E.02413
G1 X-19.402 Y-22.169 E2.33831
G1 X-20.049 Y-22.169 E.02413
G1 X24.291 Y22.171 E2.33831
G1 X23.644 Y22.171 E.02413
G1 X-20.696 Y-22.169 E2.33831
G1 X-21.344 Y-22.169 E.02413
G1 X22.996 Y22.171 E2.33831
G1 X22.349 Y22.171 E.02413
G1 X-21.991 Y-22.169 E2.33831
G1 X-22.638 Y-22.169 E.02413
G1 X21.702 Y22.171 E2.33831
G1 X21.055 Y22.171 E.02413
G1 X-23.285 Y-22.169 E2.33831
G1 X-23.932 Y-22.169 E.02413
G1 X20.408 Y22.171 E2.33831
G1 X19.761 Y22.171 E.02413
G1 X-24.579 Y-22.169 E2.33831
G1 X-25.227 Y-22.169 E.02413
G1 X19.113 Y22.171 E2.33831
G1 X18.466 Y22.171 E.02413
G1 X-25.874 Y-22.169 E2.33831
G1 X-26.521 Y-22.169 E.02413
G1 X17.819 Y22.171 E2.33831
G1 X17.172 Y22.171 E.02413
G1 X-27.168 Y-22.169 E2.33831
G1 X-27.3 Y-22.169 E.00492
G1 X-27.3 Y-21.654 E.01921
G1 X16.525 Y22.171 E2.31115
G1 X15.878 Y22.171 E.02413
G1 X-27.3 Y-21.007 E2.27702
G1 X-27.3 Y-20.36 E.02413
G1 X15.23 Y22.171 E2.24289
G1 X14.583 Y22.171 E.02413
G1 X-27.3 Y-19.713 E2.20876
G1 X-27.3 Y-19.066 E.02413
G1 X13.936 Y22.171 E2.17463
G1 X13.289 Y22.171 E.02413
G1 X-27.3 Y-18.418 E2.1405
G1 X-27.3 Y-17.771 E.02413
G1 X12.642 Y22.171 E2.10637
G1 X11.995 Y22.171 E.02413
G1 X-27.3 Y-17.124 E2.07224
G1 X-27.3 Y-16.477 E.02413
M73 P7 R36
G1 X11.347 Y22.171 E2.03811
G1 X10.7 Y22.171 E.02413
G1 X-27.3 Y-15.83 E2.00398
G1 X-27.3 Y-15.183 E.02413
G1 X10.053 Y22.171 E1.96985
G1 X9.406 Y22.171 E.02413
G1 X-27.3 Y-14.535 E1.93573
G1 X-27.3 Y-13.888 E.02413
G1 X8.759 Y22.171 E1.9016
G1 X8.112 Y22.171 E.02413
G1 X-27.3 Y-13.241 E1.86747
G1 X-27.3 Y-12.594 E.02413
G1 X7.464 Y22.171 E1.83334
G1 X6.817 Y22.171 E.02413
G1 X-27.372 Y-12.019 E1.80301
G1 X-28.019 Y-12.019 E.02413
G1 X6.17 Y22.171 E1.80301
G1 X5.523 Y22.171 E.02413
G1 X-28.666 Y-12.019 E1.80301
G1 X-29.314 Y-12.019 E.02413
G1 X4.876 Y22.171 E1.80301
G1 X4.228 Y22.171 E.02413
G1 X-29.961 Y-12.019 E1.80301
G1 X-30.608 Y-12.019 E.02413
G1 X3.581 Y22.171 E1.80301
G1 X2.934 Y22.171 E.02413
G1 X-31.255 Y-12.019 E1.80301
G1 X-31.902 Y-12.019 E.02413
G1 X2.287 Y22.171 E1.80301
G1 X1.64 Y22.171 E.02413
G1 X-32.549 Y-12.019 E1.80301
G1 X-33.197 Y-12.019 E.02413
G1 X.993 Y22.171 E1.80301
G1 X.345 Y22.171 E.02413
G1 X-33.844 Y-12.019 E1.80301
G1 X-34.491 Y-12.019 E.02413
G1 X-.302 Y22.171 E1.80301
G1 X-.949 Y22.171 E.02413
G1 X-35.138 Y-12.019 E1.80301
G1 X-35.785 Y-12.019 E.02413
G1 X-1.596 Y22.171 E1.80301
G1 X-2.243 Y22.171 E.02413
G1 X-36.432 Y-12.019 E1.80301
G1 X-37.08 Y-12.019 E.02413
G1 X-2.89 Y22.171 E1.80301
G1 X-3.538 Y22.171 E.02413
G1 X-37.727 Y-12.019 E1.80301
G1 X-38.374 Y-12.019 E.02413
G1 X-4.185 Y22.171 E1.80301
G1 X-4.832 Y22.171 E.02413
G1 X-39.021 Y-12.019 E1.80301
G1 X-39.668 Y-12.019 E.02413
G1 X-5.479 Y22.171 E1.80301
G1 X-6.126 Y22.171 E.02413
G1 X-40.315 Y-12.019 E1.80301
G1 X-40.963 Y-12.019 E.02413
G1 X-6.773 Y22.171 E1.80301
G1 X-7.421 Y22.171 E.02413
G1 X-41.61 Y-12.019 E1.80301
G1 X-42.257 Y-12.019 E.02413
M73 P8 R36
G1 X-8.068 Y22.171 E1.80301
G1 X-8.715 Y22.171 E.02413
G1 X-42.904 Y-12.019 E1.80301
G1 X-43.551 Y-12.019 E.02413
G1 X-9.362 Y22.171 E1.80301
G1 X-10.009 Y22.171 E.02413
G1 X-44.199 Y-12.019 E1.80301
G1 X-44.846 Y-12.019 E.02413
G1 X-10.656 Y22.171 E1.80301
G1 X-11.304 Y22.171 E.02413
G1 X-45.493 Y-12.019 E1.80301
G1 X-46.14 Y-12.019 E.02413
G1 X-11.951 Y22.171 E1.80301
G1 X-12.598 Y22.171 E.02413
G1 X-46.787 Y-12.019 E1.80301
G1 X-47.434 Y-12.019 E.02413
G1 X-13.245 Y22.171 E1.80301
G1 X-13.892 Y22.171 E.02413
G1 X-48.082 Y-12.019 E1.80301
G1 X-48.729 Y-12.019 E.02413
G1 X-14.539 Y22.171 E1.80301
G1 X-15.187 Y22.171 E.02413
M73 P8 R35
G1 X-49.376 Y-12.019 E1.80301
G1 X-50.023 Y-12.019 E.02413
G1 X-15.834 Y22.171 E1.80301
G1 X-16.481 Y22.171 E.02413
G1 X-50.67 Y-12.019 E1.80301
G1 X-51.317 Y-12.019 E.02413
G1 X-17.128 Y22.171 E1.80301
G1 X-17.775 Y22.171 E.02413
G1 X-51.965 Y-12.019 E1.80301
G1 X-52.612 Y-12.019 E.02413
G1 X-18.422 Y22.171 E1.80301
G1 X-19.07 Y22.171 E.02413
G1 X-53.259 Y-12.019 E1.80301
G1 X-53.906 Y-12.019 E.02413
G1 X-19.717 Y22.171 E1.80301
G1 X-20.364 Y22.171 E.02413
G1 X-54.553 Y-12.019 E1.80301
G1 X-55.2 Y-12.019 E.02413
G1 X-21.011 Y22.171 E1.80301
